src/icons/add-to-workspace.svg

<svg xmlns="http://www.w3.org/2000/svg" width="512" height="512" viewBox="0 0 512 512">
    <path d="M197.7 291.9V404H85.6V291.9h112.1m8.4-30H77.2c-11.9 0-21.6 9.7-21.6 21.6v128.9c0 11.9 9.7 21.6 21.6 21.6h128.9c11.9 0 21.6-9.7 21.6-21.6V283.5c0-12-9.7-21.6-21.6-21.6zM197.7 95v112.1H85.6V95h112.1m8.4-30H77.2c-11.9 0-21.6 9.7-21.6 21.6v128.9c0 11.9 9.7 21.6 21.6 21.6h128.9c11.9 0 21.6-9.7 21.6-21.6V86.6c0-11.9-9.7-21.6-21.6-21.6zM275 415.8l53-17.9 139.1-138.2-35.8-35.7-138.5 138.8-17.8 53zm16-208.7V95h112.1v56.1h30V86.6c0-11.9-9.7-21.6-21.6-21.6H282.6c-11.9 0-21.6 9.7-21.6 21.6v128.9c0 11.9 9.7 21.6 21.6 21.6h64.5v-30H291z"/>
</svg>

<?xml version="1.0" encoding="UTF-8"?>
<svg width="512px" height="512px" viewBox="0 0 512 512" version="1.1" xmlns="http://www.w3.org/2000/svg" xmlns:xlink="http://www.w3.org/1999/xlink">
    <!-- Generator: Sketch 62 (91390) - https://sketch.com -->
    <title>add-to-workspace</title>
    <desc>Created with Sketch.</desc>
    <g id="add-to-workspace" stroke="none" stroke-width="1" fill="none" fill-rule="evenodd">
        <path d="M197.7,291.9 L197.7,404 L85.6,404 L85.6,291.9 L197.7,291.9 M206.1,261.9 L77.2,261.9 C65.3,261.9 55.6,271.6 55.6,283.5 L55.6,412.4 C55.6,424.3 65.3,434 77.2,434 L206.1,434 C218,434 227.7,424.3 227.7,412.4 L227.7,283.5 C227.7,271.5 218,261.9 206.1,261.9 L206.1,261.9 Z M197.7,95 L197.7,207.1 L85.6,207.1 L85.6,95 L197.7,95 M206.1,65 L77.2,65 C65.3,65 55.6,74.7 55.6,86.6 L55.6,215.5 C55.6,227.4 65.3,237.1 77.2,237.1 L206.1,237.1 C218,237.1 227.7,227.4 227.7,215.5 L227.7,86.6 C227.7,74.7 218,65 206.1,65 L206.1,65 Z M275,415.8 L328,397.9 L467.1,259.7 L431.3,224 L292.8,362.8 L275,415.8 Z M291,207.1 L291,95 L403.1,95 L403.1,151.1 L433.1,151.1 L433.1,86.6 C433.1,74.7 423.4,65 411.5,65 L282.6,65 C270.7,65 261,74.7 261,86.6 L261,215.5 C261,227.4 270.7,237.1 282.6,237.1 L347.1,237.1 L347.1,207.1 L291,207.1 Z" id="Shape" fill="#000000" fill-rule="nonzero"></path>
    </g>
</svg>
